img/tab-Star.svg

<svg width="16" height="16" viewBox="0 0 16 16" fill="none" xmlns="http://www.w3.org/2000/svg">
<path fill-rule="evenodd" clip-rule="evenodd" d="M6.77932 1.46709C7.24248 0.398992 8.75719 0.39899 9.22036 1.46709L10.6214 4.69809L14.1273 5.03216C15.2862 5.14259 15.7543 6.58317 14.8816 7.35373L12.2417 9.68466L13.0073 13.1221C13.2604 14.2585 12.035 15.1488 11.0325 14.5569L7.99984 12.7665L4.96721 14.5569C3.96469 15.1488 2.73926 14.2585 2.99236 13.1221L3.75801 9.68466L1.11809 7.35373C0.245398 6.58317 0.71347 5.14259 1.87242 5.03216L5.37824 4.69809L6.77932 1.46709ZM9.40091 5.22735L7.99984 1.99635L6.59876 5.22735C6.406 5.67189 5.98678 5.97647 5.50444 6.02243L1.99861 6.35649L4.63852 8.68743C5.00174 9.00813 5.16186 9.50095 5.05652 9.97389L4.29088 13.4114L7.32351 11.621C7.74075 11.3746 8.25893 11.3746 8.67617 11.621L11.7088 13.4114L10.9432 9.97389C10.8378 9.50095 10.9979 9.00813 11.3612 8.68743L14.0011 6.35649L10.4952 6.02243C10.0129 5.97647 9.59368 5.67189 9.40091 5.22735Z" fill="#FF3F3A"/>
</svg>

<svg width="16" height="16" fill="none" xmlns="http://www.w3.org/2000/svg"><path fill-rule="evenodd" clip-rule="evenodd" d="M6.78 1.467C7.241.4 8.756.4 9.22 1.467l1.401 3.231 3.506.334c1.16.11 1.627 1.551.755 2.322l-2.64 2.33.765 3.438c.253 1.136-.972 2.027-1.974 1.435L8 12.767l-3.033 1.79c-1.002.592-2.228-.299-1.975-1.435l.766-3.437-2.64-2.331c-.873-.77-.405-2.211.754-2.322l3.506-.334 1.401-3.23zm2.62 3.76L8 1.997l-1.401 3.23a1.33 1.33 0 01-1.095.795L2 6.356l2.64 2.331c.363.321.523.814.418 1.287L4.29 13.41l3.033-1.79a1.33 1.33 0 011.352 0l3.033 1.79-.766-3.437a1.33 1.33 0 01.418-1.287L14 6.356l-3.506-.335A1.33 1.33 0 019.4 5.226z" fill="#FF3F3A"/></svg>
